img/health-icon/projector.svg

<svg width="24" height="24" viewBox="0 0 24 24" fill="none" xmlns="http://www.w3.org/2000/svg">
<path d="M12 22.25C6.34614 22.25 1.75 17.6539 1.75 12C1.75 6.34614 6.34614 1.75 12 1.75C17.6539 1.75 22.25 6.34614 22.25 12C22.25 17.6539 17.6539 22.25 12 22.25ZM12 2.25C6.62386 2.25 2.25 6.62386 2.25 12C2.25 17.3761 6.62386 21.75 12 21.75C17.3761 21.75 21.75 17.3761 21.75 12C21.75 6.62386 17.3761 2.25 12 2.25Z" fill="#52525A" stroke="#52525A"/>
<path d="M12 16.25C9.65614 16.25 7.75 14.3439 7.75 12C7.75 9.65614 9.65614 7.75 12 7.75C14.3439 7.75 16.25 9.65614 16.25 12C16.25 14.3439 14.3439 16.25 12 16.25ZM12 8.25C9.93386 8.25 8.25 9.93386 8.25 12C8.25 14.0661 9.93386 15.75 12 15.75C14.0661 15.75 15.75 14.0661 15.75 12C15.75 9.93386 14.0661 8.25 12 8.25Z" fill="#52525A" stroke="#52525A"/>
<path d="M12.0534 8.24138L12.0526 8.24157C11.9196 8.27077 11.7898 8.19018 11.7579 8.05147C11.7295 7.91882 11.8101 7.78968 11.9485 7.75798C15.0269 7.08393 18.1427 7.08393 21.221 7.75798C21.3581 7.7894 21.4397 7.9269 21.412 8.05019L21.4118 8.05015L21.4095 8.06188C21.3886 8.16651 21.294 8.24892 21.172 8.24993C21.1707 8.24983 21.166 8.24946 21.1573 8.24828C21.1447 8.24655 21.1294 8.2439 21.1117 8.24041C18.103 7.58613 15.062 7.58645 12.0534 8.24138Z" fill="#52525A" stroke="#52525A"/>
<path d="M8.73272 13.8385C8.82159 13.9405 8.8109 14.0988 8.71859 14.1865C8.65846 14.2314 8.59229 14.2501 8.53977 14.2501C8.47202 14.2501 8.3995 14.2208 8.34553 14.1602C6.40843 11.934 4.914 9.40698 3.88713 6.63635L4.1327 6.52602L4.35356 6.45137C5.35404 9.16302 6.82572 11.6493 8.73272 13.8385Z" fill="#52525A" stroke="#52525A"/>
<path d="M10.8798 22.69C10.6998 22.69 10.5198 22.63 10.3798 22.5C10.0698 22.22 10.0498 21.75 10.3298 21.44C12.3298 19.24 13.8098 16.69 14.7298 13.86C14.8598 13.47 15.2998 13.21 15.6898 13.34C16.0798 13.47 16.3098 13.85 16.1898 14.24C15.1798 17.36 13.5898 20.1 11.4498 22.46C11.2898 22.61 11.0798 22.69 10.8798 22.69Z" fill="#52525A"/>
</svg>

<svg width="24" height="24" fill="none" xmlns="http://www.w3.org/2000/svg"><path d="M12 22.25C6.346 22.25 1.75 17.654 1.75 12S6.346 1.75 12 1.75 22.25 6.346 22.25 12 17.654 22.25 12 22.25zm0-20c-5.376 0-9.75 4.374-9.75 9.75s4.374 9.75 9.75 9.75 9.75-4.374 9.75-9.75S17.376 2.25 12 2.25z" fill="#52525A" stroke="#52525A"/><path d="M12 16.25A4.254 4.254 0 0 1 7.75 12 4.254 4.254 0 0 1 12 7.75 4.254 4.254 0 0 1 16.25 12 4.254 4.254 0 0 1 12 16.25zm0-8A3.756 3.756 0 0 0 8.25 12 3.756 3.756 0 0 0 12 15.75 3.756 3.756 0 0 0 15.75 12 3.756 3.756 0 0 0 12 8.25z" fill="#52525A" stroke="#52525A"/><path d="M12.053 8.241a.246.246 0 0 1-.295-.19.246.246 0 0 1 .19-.293 21.512 21.512 0 0 1 9.273 0 .251.251 0 0 1 .191.292l-.002.012a.24.24 0 0 1-.253.186 21.137 21.137 0 0 0-9.104-.007zM8.733 13.838a.257.257 0 0 1-.014.349.307.307 0 0 1-.18.063.262.262 0 0 1-.193-.09 24.237 24.237 0 0 1-4.459-7.524l.246-.11.22-.075c1.001 2.712 2.473 5.198 4.38 7.388z" fill="#52525A" stroke="#52525A"/><path d="M10.88 22.69a.746.746 0 0 1-.55-1.25c2-2.2 3.48-4.75 4.4-7.58.13-.39.57-.65.96-.52s.62.51.5.9c-1.01 3.12-2.6 5.86-4.74 8.22-.16.15-.37.23-.57.23z" fill="#52525A"/></svg>
